src/svg/groups.svg

<svg width="24" height="24" viewBox="0 0 24 24">
  <path fill-rule="evenodd" d="M12.4995,10 C11.6715,10 10.9995,9.329 10.9995,8.5 C10.9995,7.671 11.6715,7 12.4995,7 C13.3285,7 13.9995,7.671 13.9995,8.5 C13.9995,9.329 13.3285,10 12.4995,10 M9.5005,11 C8.1195,11 6.9995,12.119 6.9995,13.5 C6.9995,14.881 8.1195,16 9.5005,16 C10.8805,16 11.9995,14.881 11.9995,13.5 C11.9995,12.119 10.8805,11 9.5005,11 M7.9995,17 C6.8955,17 5.9995,17.895 5.9995,19 C5.9995,20.104 6.8955,21 7.9995,21 C9.1045,21 9.9995,20.104 9.9995,19 C9.9995,17.895 9.1045,17 7.9995,17 M13.9995,6 C15.1045,6 15.9995,5.104 15.9995,4 C15.9995,2.896 15.1045,2 13.9995,2 C12.8955,2 11.9995,2.896 11.9995,4 C11.9995,5.104 12.8955,6 13.9995,6 M14.9995,12 C13.8955,12 12.9995,12.896 12.9995,13.999 C12.9995,15.104 13.8955,16 14.9995,16 C16.1045,16 16.9995,15.104 16.9995,13.999 C16.9995,12.896 16.1045,12 14.9995,12 M17.9995,16 C16.8945,16 15.9995,16.896 15.9995,18.001 C15.9995,19.104 16.8945,20.001 17.9995,20.001 C19.1035,20.001 19.9995,19.104 19.9995,18.001 C19.9995,16.896 19.1035,16 17.9995,16 M13.4995,19 C12.6715,19 11.9995,19.671 11.9995,20.5 C11.9995,21.328 12.6715,22 13.4995,22 C14.3285,22 14.9995,21.328 14.9995,20.5 C14.9995,19.671 14.3285,19 13.4995,19 M3.9995,14 C3.1715,14 2.4995,14.671 2.4995,15.5 C2.4995,16.328 3.1715,17 3.9995,17 C4.8285,17 5.4995,16.328 5.4995,15.5 C5.4995,14.671 4.8285,14 3.9995,14 M4.0315,11.999 C5.1545,11.999 6.0635,11.104 6.0635,10 C6.0635,8.896 5.1545,8 4.0315,8 C2.9095,8 1.9995,8.896 1.9995,10 C1.9995,11.104 2.9095,11.999 4.0315,11.999 M20.4995,12 C19.6715,12 18.9995,12.671 18.9995,13.5 C18.9995,14.329 19.6715,15 20.4995,15 C21.3285,15 21.9995,14.329 21.9995,13.5 C21.9995,12.671 21.3285,12 20.4995,12 M18.4995,10 C19.8805,10 20.9995,8.881 20.9995,7.5 C20.9995,6.12 19.8805,5 18.4995,5 C17.1195,5 15.9995,6.12 15.9995,7.5 C15.9995,8.881 17.1195,10 18.4995,10 M8.1035,8.327 C9.5515,8.327 10.7245,7.154 10.7245,5.707 C10.7245,4.26 9.5515,3.087 8.1035,3.087 C6.6565,3.087 5.4835,4.26 5.4835,5.707 C5.4835,7.154 6.6565,8.327 8.1035,8.327"/>
</svg>

<?xml version="1.0" encoding="utf-8"?>
<!-- Generator: Adobe Illustrator 16.0.0, SVG Export Plug-In . SVG Version: 6.00 Build 0)  -->
<!DOCTYPE svg PUBLIC "-//W3C//DTD SVG 1.1//EN" "http://www.w3.org/Graphics/SVG/1.1/DTD/svg11.dtd">
<svg version="1.1" xmlns="http://www.w3.org/2000/svg" xmlns:xlink="http://www.w3.org/1999/xlink" x="0px" y="0px" width="24px"
	 height="24px" viewBox="0 0 24 24" enable-background="new 0 0 24 24" xml:space="preserve">
<g id="_x31_6px">
</g>
<g id="_x31_6px-grid" display="none">
</g>
<g id="_x32_4px">
	<g>
		<defs>
			<path id="SVGID_3_" d="M8.104,8.327c1.447,0,2.62-1.173,2.62-2.62s-1.173-2.62-2.62-2.62s-2.62,1.173-2.62,2.62
				S6.657,8.327,8.104,8.327 M18.5,10c1.381,0,2.5-1.119,2.5-2.5C21,6.12,19.881,5,18.5,5S16,6.12,16,7.5
				C16,8.881,17.119,10,18.5,10 M20.5,12c-0.829,0-1.5,0.671-1.5,1.5s0.671,1.5,1.5,1.5s1.5-0.671,1.5-1.5S21.329,12,20.5,12
				 M4.032,11.999c1.123,0,2.032-0.895,2.032-1.999c0-1.104-0.91-2-2.032-2C2.91,8,2,8.896,2,10C2,11.104,2.91,11.999,4.032,11.999
				 M4,14c-0.828,0-1.5,0.671-1.5,1.5C2.5,16.328,3.172,17,4,17s1.5-0.672,1.5-1.5C5.5,14.671,4.828,14,4,14 M13.5,19
				c-0.828,0-1.5,0.671-1.5,1.5c0,0.828,0.672,1.5,1.5,1.5c0.829,0,1.5-0.672,1.5-1.5C15,19.671,14.329,19,13.5,19 M17.999,16
				C16.894,16,16,16.896,16,18.001c0,1.104,0.894,2,1.999,2s2.001-0.896,2.001-2C20,16.896,19.104,16,17.999,16 M15,12
				c-1.105,0-2,0.896-2,1.999C13,15.104,13.895,16,15,16s2-0.896,2-2.001C17,12.896,16.105,12,15,12 M14,6c1.105,0,2-0.896,2-2
				s-0.895-2-2-2s-2,0.896-2,2S12.895,6,14,6 M8,17c-1.104,0-2,0.895-2,2c0,1.104,0.896,2,2,2c1.105,0,2-0.896,2-2
				C10,17.895,9.105,17,8,17 M9.5,11C8.119,11,7,12.119,7,13.5S8.119,16,9.5,16c1.38,0,2.5-1.119,2.5-2.5S10.881,11,9.5,11 M12.5,10
				C11.671,10,11,9.329,11,8.5S11.671,7,12.5,7C13.328,7,14,7.671,14,8.5S13.328,10,12.5,10"/>
		</defs>
		<use xlink:href="#SVGID_3_"  overflow="visible" fill-rule="evenodd" clip-rule="evenodd"/>
		<clipPath id="SVGID_2_">
			<use xlink:href="#SVGID_3_"  overflow="visible"/>
		</clipPath>
	</g>
</g>
<g id="_x32_4px-grid" display="none">
	<path display="inline" fill="none" stroke="#FF33FF" stroke-width="0.075" stroke-miterlimit="10" d="M22,12
		c0,5.522-4.473,10-10,10S2,17.522,2,12S6.473,2,12,2S22,6.478,22,12z"/>
	<circle display="inline" fill="none" stroke="#FF33FF" stroke-width="0.075" stroke-miterlimit="10" cx="12" cy="12" r="5"/>
	<line display="inline" fill="none" stroke="#FF33FF" stroke-miterlimit="10" x1="4.312" y1="22.5" x2="4.312" y2="22.5"/>
	<line display="inline" fill="none" stroke="#FF33FF" stroke-width="0.075" stroke-miterlimit="10" x1="24" y1="0" x2="0" y2="24"/>
	<line display="inline" fill="none" stroke="#FF33FF" stroke-width="0.075" stroke-miterlimit="10" x1="0" y1="0" x2="24" y2="24"/>
</g>
<g id="_x34_8px">
</g>
<g id="_x34_8px-grid" display="none">
</g>
<g id="_x31_60px">
</g>
<g id="_x31_60px-grid" display="none">
</g>
</svg>
